public/images/icons/re-icons/re-error.svg

<svg width="17" height="17" viewBox="0 0 17 17" fill="none" xmlns="http://www.w3.org/2000/svg">
<circle cx="8.79199" cy="8.98047" r="8" fill="#FF3333"/>
<path d="M7.79199 10.9805V3.98047H9.79199V10.9805H7.79199Z" fill="white"/>
<path d="M7.79199 11.9805V13.9805H9.79199V11.9805H7.79199Z" fill="white"/>
</svg>

<svg fill="none" viewBox="0 0 17 17"><circle cx="8.792" cy="8.98" r="8" fill="#F33"/><path fill="#fff" d="M7.792 10.98v-7h2v7h-2zm0 1v2h2v-2h-2z"/></svg>
